localPackages/DesignSystem/Sources/DesignSystem/Resources/Assets.xcassets/IconSet/ic-calendar-day.imageset/ic-calendar-day.svg

<svg width="24" height="24" viewBox="0 0 24 24" fill="none" xmlns="http://www.w3.org/2000/svg">
<g id="ic-calendar-day">
<path id="Icon" fill-rule="evenodd" clip-rule="evenodd" d="M16.5 4.5H7.5V2.25C7.5 1.83579 7.16421 1.5 6.75 1.5C6.33579 1.5 6 1.83579 6 2.25V4.5C3.51472 4.5 1.5 6.51472 1.5 9V18C1.5 20.4853 3.51472 22.5 6 22.5H18C20.4853 22.5 22.5 20.4853 22.5 18V9C22.5 6.51472 20.4853 4.5 18 4.5V2.25C18 1.83579 17.6642 1.5 17.25 1.5C16.8358 1.5 16.5 1.83579 16.5 2.25V4.5ZM6 6H18C19.6569 6 21 7.34315 21 9V18C21 19.6569 19.6569 21 18 21H6C4.34315 21 3 19.6569 3 18V9C3 7.34315 4.34315 6 6 6Z" fill="#0F0F0F"/>
</g>
</svg>

<svg xmlns="http://www.w3.org/2000/svg" width="24" height="24" viewBox="0 0 24 24">
  <g class="ic-calendar-day">
    <path fill-rule="evenodd" d="M16.5 4.5h-9V2.25a.75.75 0 0 0-1.5 0V4.5A4.5 4.5 0 0 0 1.5 9v9A4.5 4.5 0 0 0 6 22.5h12a4.5 4.5 0 0 0 4.5-4.5V9A4.5 4.5 0 0 0 18 4.5V2.25a.75.75 0 0 0-1.5 0V4.5ZM6 6h12a3 3 0 0 1 3 3v9a3 3 0 0 1-3 3H6a3 3 0 0 1-3-3V9a3 3 0 0 1 3-3Z" class="Icon"/>
  </g>
</svg>
